public/svg/github.svg

<svg width="52" height="52" viewBox="0 0 52 52" fill="none" xmlns="http://www.w3.org/2000/svg">
<g opacity="0.6">
<path d="M25.9992 5.19922C14.5124 5.19922 5.19922 14.5124 5.19922 25.9992C5.19922 35.7458 11.9107 43.9011 20.9587 46.1579C20.8616 45.8771 20.7992 45.5512 20.7992 45.1474V41.5923C19.9551 41.5923 18.5407 41.5923 18.1854 41.5923C16.7623 41.5923 15.497 40.9804 14.8834 39.8433C14.2022 38.5798 14.0843 36.6471 12.396 35.465C11.8951 35.0715 12.2764 34.6226 12.8536 34.6832C13.9196 34.9848 14.8036 35.7163 15.6356 36.8014C16.4642 37.8881 16.8542 38.1343 18.402 38.1343C19.1526 38.1343 20.2758 38.091 21.3331 37.9245C21.9016 36.4807 22.8844 35.1512 24.0856 34.5237C17.1592 33.8113 13.8538 30.3655 13.8538 25.6872C13.8538 23.6731 14.7118 21.7248 16.1695 20.0834C15.6911 18.454 15.0896 15.1312 16.3532 13.8659C19.4698 13.8659 21.3539 15.887 21.8063 16.433C23.3594 15.9008 25.065 15.5992 26.8572 15.5992C28.653 15.5992 30.3655 15.9008 31.922 16.4364C32.3692 15.8939 34.2551 13.8659 37.3786 13.8659C38.6474 15.133 38.0389 18.4696 37.5554 20.0955C39.0044 21.7335 39.8572 23.6765 39.8572 25.6872C39.8572 30.362 36.5569 33.8062 29.641 34.522C31.5441 35.5152 32.9326 38.3059 32.9326 40.4084V45.1474C32.9326 45.3276 32.8927 45.4576 32.8719 45.6119C40.977 42.771 46.7992 35.075 46.7992 25.9992C46.7992 14.5124 37.486 5.19922 25.9992 5.19922Z" fill="white"/>
</g>
</svg>

<svg width="52" height="52" fill="none" xmlns="http://www.w3.org/2000/svg"><path d="M26 5.2C14.511 5.2 5.2 14.511 5.2 26c0 9.746 6.71 17.901 15.759 20.158a3.035 3.035 0 0 1-.16-1.01v-3.556h-2.614c-1.423 0-2.688-.612-3.302-1.749-.68-1.263-.799-3.196-2.487-4.378-.5-.394-.12-.842.458-.782 1.066.302 1.95 1.033 2.782 2.118.828 1.087 1.218 1.333 2.766 1.333.75 0 1.874-.043 2.931-.21.569-1.443 1.551-2.773 2.753-3.4-6.927-.713-10.232-4.159-10.232-8.837 0-2.014.858-3.962 2.316-5.604-.479-1.629-1.08-4.952.183-6.217 3.117 0 5 2.021 5.453 2.567a15.586 15.586 0 0 1 5.051-.834c1.796 0 3.509.302 5.065.837.447-.542 2.333-2.57 5.457-2.57 1.268 1.267.66 4.604.176 6.23 1.45 1.637 2.302 3.58 2.302 5.591 0 4.675-3.3 8.12-10.216 8.835 1.903.993 3.292 3.784 3.292 5.886v4.74c0 .18-.04.31-.061.464 8.105-2.841 13.927-10.537 13.927-19.613 0-11.487-9.313-20.8-20.8-20.8Z" fill="#fff"/></svg>
